svg/event/business.svg

<?xml version="1.0" encoding="UTF-8" standalone="no"?>
<!-- Generator: Adobe Illustrator 19.0.0, SVG Export Plug-In . SVG Version: 6.00 Build 0)  -->

<svg
   xmlns:dc="http://purl.org/dc/elements/1.1/"
   xmlns:cc="http://creativecommons.org/ns#"
   xmlns:rdf="http://www.w3.org/1999/02/22-rdf-syntax-ns#"
   xmlns:svg="http://www.w3.org/2000/svg"
   xmlns="http://www.w3.org/2000/svg"
   xmlns:sodipodi="http://sodipodi.sourceforge.net/DTD/sodipodi-0.dtd"
   xmlns:inkscape="http://www.inkscape.org/namespaces/inkscape"
   version="1.1"
   id="Layer_1"
   x="0px"
   y="0px"
   viewBox="0 0 320 320"
   xml:space="preserve"
   sodipodi:docname="business.svg"
   inkscape:version="0.92.4 (5da689c313, 2019-01-14)"
   width="320"
   height="320"><metadata
   id="metadata49"><rdf:RDF><cc:Work
       rdf:about=""><dc:format>image/svg+xml</dc:format><dc:type
         rdf:resource="http://purl.org/dc/dcmitype/StillImage" /><dc:title /></cc:Work></rdf:RDF></metadata><defs
   id="defs47" /><sodipodi:namedview
   pagecolor="#ffffff"
   bordercolor="#666666"
   borderopacity="1"
   objecttolerance="10"
   gridtolerance="10"
   guidetolerance="10"
   inkscape:pageopacity="0"
   inkscape:pageshadow="2"
   inkscape:window-width="1812"
   inkscape:window-height="940"
   id="namedview45"
   showgrid="false"
   inkscape:zoom="1.4142136"
   inkscape:cx="4.3138882"
   inkscape:cy="206.79398"
   inkscape:window-x="30"
   inkscape:window-y="0"
   inkscape:window-maximized="1"
   inkscape:current-layer="Layer_1"
   showguides="true"
   inkscape:guide-bbox="true" />




















<rect
   style="opacity:1;fill:#aad2ff;fill-opacity:1;stroke:none;stroke-width:2.56773782;stroke-miterlimit:4;stroke-dasharray:none;stroke-opacity:1;paint-order:stroke fill markers"
   id="rect837"
   width="320"
   height="313.34393"
   x="0"
   y="3.6768703"
   rx="16.072351"
   ry="17.407997" /><path
   inkscape:connector-curvature="0"
   style="fill:#333333;fill-opacity:1;stroke-width:0.5436359"
   d="m 14.143808,183.30471 v 77.79573 c 0,5.52105 5.785996,10.03819 12.857906,10.03819 H 294.44594 c 7.07191,0 12.8579,-4.51714 12.8579,-10.03819 v -77.79573 z"
   id="path4" /><path
   inkscape:connector-curvature="0"
   style="fill:#333333;fill-opacity:1;stroke-width:0.41061896"
   d="m 198.36389,38.389183 h -77.20901 c -9.22619,0 -16.99547,6.065491 -16.99547,13.2684 V 88.809521 H 215.35984 V 51.657583 c -4.7e-4,-7.202909 -7.76975,-13.2684 -16.99595,-13.2684 z m 2.42773,39.047274 H 118.72669 V 51.657583 c 0,-1.137421 0.97128,-1.895333 2.42773,-1.895333 h 77.20901 c 1.45692,0 2.42773,0.758278 2.42773,1.895333 v 25.778874 z"
   id="path2" /><path
   style="fill:#ffd345;fill-opacity:1;stroke-width:0.41061896"
   d="M 104.15949,64.926929 V 88.80894 h 14.56699 41.0332 41.03201 14.56819 V 64.926929 H 200.79169 V 77.435844 88.76767 H 118.72648 V 77.435844 64.926929 Z"
   id="polygon6"
   inkscape:connector-curvature="0" /><path
   inkscape:connector-curvature="0"
   style="fill:#4d4d4d;fill-opacity:1;stroke-width:0.5436359"
   d="M 302.16019,72.884611 H 19.286847 c -7.07191,0 -12.8579067,4.517134 -12.8579067,10.038185 v 95.362814 c 0,5.52105 5.7859967,10.03819 12.8579067,10.03819 H 302.16019 c 7.07191,0 12.85791,-4.51714 12.85791,-10.03819 V 82.922796 c 0,-5.521051 -5.786,-10.038185 -12.85791,-10.038185 z"
   id="path8" /><path
   inkscape:connector-curvature="0"
   style="fill:#ffd345;fill-opacity:1;stroke-width:0.5436359"
   d="m 160.72383,203.88304 v 0 c -9.64312,0 -17.35799,-6.02301 -17.35799,-13.55141 v -2.00783 h 34.71597 v 2.00783 c 0,7.5284 -7.71486,13.55141 -17.35798,13.55141 z"
   id="path10" /><path
   inkscape:connector-curvature="0"
   style="fill:#ffed6c;fill-opacity:1;stroke-width:0.5436359"
   d="m 166.50982,172.76456 h -10.92903 c -9.64313,0 -17.358,6.02301 -17.358,13.5514 v 2.00784 h 45.64564 v -2.00784 c -6.2e-4,-7.52839 -7.71549,-13.5514 -17.35861,-13.5514 z"
   id="path12" /><g
   id="g14"
   transform="matrix(0.59983612,0,0,0.44987713,2.5331691,60.327399)">
</g><g
   id="g16"
   transform="matrix(0.59983612,0,0,0.44987713,2.5331691,60.327399)">
</g><g
   id="g18"
   transform="matrix(0.59983612,0,0,0.44987713,2.5331691,60.327399)">
</g><g
   id="g20"
   transform="matrix(0.59983612,0,0,0.44987713,2.5331691,60.327399)">
</g><g
   id="g22"
   transform="matrix(0.59983612,0,0,0.44987713,2.5331691,60.327399)">
</g><g
   id="g24"
   transform="matrix(0.59983612,0,0,0.44987713,2.5331691,60.327399)">
</g><g
   id="g26"
   transform="matrix(0.59983612,0,0,0.44987713,2.5331691,60.327399)">
</g><g
   id="g28"
   transform="matrix(0.59983612,0,0,0.44987713,2.5331691,60.327399)">
</g><g
   id="g30"
   transform="matrix(0.59983612,0,0,0.44987713,2.5331691,60.327399)">
</g><g
   id="g32"
   transform="matrix(0.59983612,0,0,0.44987713,2.5331691,60.327399)">
</g><g
   id="g34"
   transform="matrix(0.59983612,0,0,0.44987713,2.5331691,60.327399)">
</g><g
   id="g36"
   transform="matrix(0.59983612,0,0,0.44987713,2.5331691,60.327399)">
</g><g
   id="g38"
   transform="matrix(0.59983612,0,0,0.44987713,2.5331691,60.327399)">
</g><g
   id="g40"
   transform="matrix(0.59983612,0,0,0.44987713,2.5331691,60.327399)">
</g><g
   id="g42"
   transform="matrix(0.59983612,0,0,0.44987713,2.5331691,60.327399)">
</g>
</svg>

<!-- Generator: Adobe Illustrator 19.0.0, SVG Export Plug-In . SVG Version: 6.00 Build 0)  -->
<svg id="Layer_1" width="320" height="320" version="1.1" viewBox="0 0 320 320" xml:space="preserve" xmlns="http://www.w3.org/2000/svg" xmlns:cc="http://creativecommons.org/ns#" xmlns:dc="http://purl.org/dc/elements/1.1/" xmlns:rdf="http://www.w3.org/1999/02/22-rdf-syntax-ns#"><metadata id="metadata49"><rdf:RDF><cc:Work rdf:about=""><dc:format>image/svg+xml</dc:format><dc:type rdf:resource="http://purl.org/dc/dcmitype/StillImage"/><dc:title/></cc:Work></rdf:RDF></metadata>




















<rect id="rect837" y="3.6769" width="320" height="313.34" rx="16.072" ry="17.408" fill="#aad2ff" style="paint-order:stroke fill markers"/><path id="path4" d="m14.144 183.3v77.796c0 5.521 5.786 10.038 12.858 10.038h267.44c7.0719 0 12.858-4.5171 12.858-10.038v-77.796z" fill="#333" stroke-width=".54364"/><path id="path2" d="m198.36 38.389h-77.209c-9.2262 0-16.995 6.0655-16.995 13.268v37.152h111.2v-37.152c-4.7e-4 -7.2029-7.7698-13.268-16.996-13.268zm2.4277 39.047h-82.065v-25.779c0-1.1374 0.97128-1.8953 2.4277-1.8953h77.209c1.4569 0 2.4277 0.75828 2.4277 1.8953v25.779z" fill="#333" stroke-width=".41062"/><path id="polygon6" d="m104.16 64.927v23.882h111.2v-23.882h-14.568v23.841h-82.065v-23.841z" fill="#ffd345" stroke-width=".41062"/><path id="path8" d="m302.16 72.885h-282.87c-7.0719 0-12.858 4.5171-12.858 10.038v95.363c0 5.521 5.786 10.038 12.858 10.038h282.87c7.0719 0 12.858-4.5171 12.858-10.038v-95.363c0-5.5211-5.786-10.038-12.858-10.038z" fill="#4d4d4d" stroke-width=".54364"/><path id="path10" d="m160.72 203.88c-9.6431 0-17.358-6.023-17.358-13.551v-2.0078h34.716v2.0078c0 7.5284-7.7149 13.551-17.358 13.551z" fill="#ffd345" stroke-width=".54364"/><path id="path12" d="m166.51 172.76h-10.929c-9.6431 0-17.358 6.023-17.358 13.551v2.0078h45.646v-2.0078c-6.2e-4 -7.5284-7.7155-13.551-17.359-13.551z" fill="#ffed6c" stroke-width=".54364"/>
</svg>
